packages/kaspersky-hexa-ui-icons/src/iconsSVGs/28x20/FlagSa.svg

<svg width="28" height="20" viewBox="0 0 28 20" fill="none" xmlns="http://www.w3.org/2000/svg">
<g clip-path="url(#clip0_5138_1202)">
<rect width="28" height="20" rx="2" fill="white"/>
<mask id="mask0_5138_1202" style="mask-type:luminance" maskUnits="userSpaceOnUse" x="0" y="0" width="28" height="20">
<rect width="28" height="20" rx="2" fill="white"/>
</mask>
<g mask="url(#mask0_5138_1202)">
<rect width="28" height="20" fill="#128C4B"/>
<path fill-rule="evenodd" clip-rule="evenodd" d="M6.66667 12H17.3333V11.0787C17.3333 10.5831 17.8549 10.2608 18.2981 10.4824L18.6667 10.6667V12H20.6667C21.0349 12 21.3333 12.2985 21.3333 12.6667V13.3333C21.3333 14.0697 20.7364 14.6667 20 14.6667H18C17.6318 14.6667 17.3333 14.3682 17.3333 14V13.3333H8.27615C8.09934 13.3333 7.92977 13.2631 7.80474 13.1381L6.66667 12Z" fill="white"/>
<path fill-rule="evenodd" clip-rule="evenodd" d="M6.66667 8.13807C6.66667 8.04967 6.70179 7.96488 6.7643 7.90237L7.09764 7.56904C7.22781 7.43886 7.22781 7.22781 7.09764 7.09763L6.7643 6.7643C6.70179 6.70179 6.66667 6.617 6.66667 6.5286V5.66667C6.66667 5.48257 6.81591 5.33334 7.00001 5.33334H7.74536C7.886 5.33334 8.00001 5.44734 8.00001 5.58798C8.00001 5.85669 8.36224 5.9422 8.48241 5.70186L8.58179 5.5031C8.63381 5.39906 8.74015 5.33334 8.85647 5.33334H10.3333C10.5174 5.33334 10.6667 5.48257 10.6667 5.66667C10.6667 5.85076 10.5174 6 10.3333 6H9.66667C9.48258 6 9.33334 6.14924 9.33334 6.33334C9.33334 6.51743 9.48258 6.66667 9.66667 6.66667H10.3333C10.5174 6.66667 10.6667 6.81591 10.6667 7V9C10.6667 9.1841 10.5174 9.33334 10.3333 9.33334H9.66667C9.48258 9.33334 9.33334 9.1841 9.33334 9V8.33334C9.33334 8.14924 9.48258 8 9.66667 8C9.85077 8 10 7.85076 10 7.66667C10 7.48257 9.85077 7.33334 9.66667 7.33334H9.00001C8.81591 7.33334 8.66667 7.48257 8.66667 7.66667V9C8.66667 9.1841 8.51743 9.33334 8.33334 9.33334C8.14924 9.33334 8.00001 9.1841 8.00001 9V8.33334C8.00001 8.14924 7.85077 8 7.66667 8C7.48258 8 7.33334 8.14924 7.33334 8.33334V9C7.33334 9.1841 7.1841 9.33334 7.00001 9.33334C6.81591 9.33334 6.66667 9.1841 6.66667 9V8.13807Z" fill="white"/>
<path fill-rule="evenodd" clip-rule="evenodd" d="M17.3333 8.13807C17.3333 8.04967 17.3684 7.96488 17.431 7.90237L17.7643 7.56904C17.8945 7.43886 17.8945 7.22781 17.7643 7.09763L17.431 6.7643C17.3684 6.70179 17.3333 6.617 17.3333 6.5286V5.66667C17.3333 5.48257 17.4826 5.33334 17.6667 5.33334H18.412C18.5527 5.33334 18.6667 5.44734 18.6667 5.58798C18.6667 5.85669 19.0289 5.9422 19.1491 5.70186L19.2484 5.5031C19.3005 5.39906 19.4068 5.33334 19.5231 5.33334H21C21.1841 5.33334 21.3333 5.48257 21.3333 5.66667C21.3333 5.85076 21.1841 6 21 6H20.3333C20.1492 6 20 6.14924 20 6.33334C20 6.51743 20.1492 6.66667 20.3333 6.66667H21C21.1841 6.66667 21.3333 6.81591 21.3333 7V9C21.3333 9.1841 21.1841 9.33334 21 9.33334H20.3333C20.1492 9.33334 20 9.1841 20 9V8.33334C20 8.14924 20.1492 8 20.3333 8C20.5174 8 20.6667 7.85076 20.6667 7.66667C20.6667 7.48257 20.5174 7.33334 20.3333 7.33334H19.6667C19.4826 7.33334 19.3333 7.48257 19.3333 7.66667V9C19.3333 9.1841 19.1841 9.33334 19 9.33334C18.8159 9.33334 18.6667 9.1841 18.6667 9V8.33334C18.6667 8.14924 18.5174 8 18.3333 8C18.1492 8 18 8.14924 18 8.33334V9C18 9.1841 17.8508 9.33334 17.6667 9.33334C17.4826 9.33334 17.3333 9.1841 17.3333 9V8.13807Z" fill="white"/>
<path fill-rule="evenodd" clip-rule="evenodd" d="M16 6.33021C16 6.51603 15.8958 6.77084 15.7593 6.90735L15.574 7.09265C15.4411 7.22558 15.4375 7.4375 15.574 7.57402L15.7593 7.75932C15.8922 7.89225 16 8.14269 16 8.33646V8.99688C16 9.1827 15.8573 9.33334 15.6635 9.33334H15.0031C14.8173 9.33334 14.6667 9.19065 14.6667 8.99688V8.33646C14.6667 8.15064 14.6051 8.12305 14.512 8.30925L14.1546 9.02409C14.0692 9.19488 13.8431 9.33334 13.6697 9.33334H12.3303C12.1479 9.33334 12 9.17871 12 9C12 8.81591 12.1427 8.66667 12.3365 8.66667H12.9969C13.1827 8.66667 13.3333 8.51205 13.3333 8.33334C13.3333 8.14924 13.1906 8 12.9969 8H12.3365C12.1506 8 12 7.85663 12 7.67302V5.66032C12 5.47973 12.1427 5.33334 12.3365 5.33334H12.9969C13.1827 5.33334 13.3333 5.47603 13.3333 5.66979V6.33021C13.3333 6.51603 13.1787 6.66667 13 6.66667C12.8159 6.66667 12.6667 6.82129 12.6667 7C12.6667 7.1841 12.8094 7.33334 13.0031 7.33334H13.6635C13.8494 7.33334 14 7.1764 14 7.00308V5.6636C14 5.4812 14.1546 5.33334 14.3333 5.33334C14.5174 5.33334 14.6667 5.47603 14.6667 5.66979V6.33021C14.6667 6.51603 14.8213 6.66667 15 6.66667C15.1841 6.66667 15.3333 6.52398 15.3333 6.33021V5.66979C15.3333 5.48397 15.488 5.33334 15.6667 5.33334C15.8508 5.33334 16 5.47603 16 5.66979V6.33021Z" fill="white"/>
</g>
</g>
<defs>
<clipPath id="clip0_5138_1202">
<rect width="28" height="20" fill="white"/>
</clipPath>
</defs>
</svg>

<svg xmlns="http://www.w3.org/2000/svg" width="28" height="20" fill="none" viewBox="0 0 28 20"><g clip-path="url(#a)"><rect width="28" height="20" fill="#fff" rx="2"/><mask id="b" width="28" height="20" x="0" y="0" maskUnits="userSpaceOnUse" style="mask-type:luminance"><rect width="28" height="20" fill="#fff" rx="2"/></mask><g mask="url(#b)"><path fill="#128c4b" d="M0 0h28v20H0z"/><path fill="#fff" fill-rule="evenodd" d="M6.667 12h10.667v-.921c0-.496.522-.818.965-.596l.369.184V12h2a.667.667 0 0 1 .667.667v.667c0 .736-.597 1.333-1.333 1.333h-2a.667.667 0 0 1-.669-.667v-.667H8.276a.667.667 0 0 1-.471-.195zm0-3.862a.333.333 0 0 1 .098-.236l.333-.333a.333.333 0 0 0 0-.471l-.333-.333a.333.333 0 0 1-.098-.236v-.862A.333.333 0 0 1 7 5.333h.745c.141 0 .255.114.255.255 0 .269.362.354.482.114l.099-.199a.307.307 0 0 1 .275-.17h1.477a.333.333 0 1 1 0 .667h-.667a.333.333 0 0 0 0 .667h.667a.333.333 0 0 1 .334.333v2a.333.333 0 0 1-.333.333h-.667A.333.333 0 0 1 9.333 9v-.667A.333.333 0 0 1 9.667 8a.333.333 0 1 0 0-.667H9a.333.333 0 0 0-.333.333V9A.333.333 0 1 1 8 9v-.667a.333.333 0 1 0-.667 0V9a.333.333 0 1 1-.667 0zm10.666 0a.333.333 0 0 1 .098-.236l.333-.333a.333.333 0 0 0 0-.471l-.333-.333a.333.333 0 0 1-.098-.236v-.862a.333.333 0 0 1 .333-.333h.745c.141 0 .255.114.255.255 0 .269.362.354.482.114l.099-.199a.307.307 0 0 1 .275-.17H21A.333.333 0 1 1 21 6h-.667a.333.333 0 0 0 0 .667H21a.333.333 0 0 1 .333.333v2a.333.333 0 0 1-.333.333h-.667A.333.333 0 0 1 20 9v-.667A.333.333 0 0 1 20.333 8a.333.333 0 1 0 0-.667h-.667a.333.333 0 0 0-.333.333V9a.333.333 0 1 1-.667 0v-.667a.333.333 0 0 0-.667 0V9a.333.333 0 1 1-.667 0zM16 6.33c0 .186-.104.441-.241.577l-.185.185a.337.337 0 0 0 0 .481l.185.185c.133.133.241.383.241.577v.66c0 .186-.143.336-.336.336h-.66c-.186 0-.336-.143-.336-.336v-.66c0-.186-.062-.213-.155-.027l-.357.715c-.085.171-.311.309-.485.309h-1.339C12.148 9.333 12 9.179 12 9c0-.184.143-.333.337-.333h.66c.186 0 .336-.155.336-.333 0-.184-.143-.333-.336-.333h-.66C12.151 8 12 7.857 12 7.673V5.66c0-.181.143-.327.337-.327h.66c.186 0 .336.143.336.337v.66c0 .186-.155.337-.333.337-.184 0-.333.155-.333.333 0 .184.143.333.336.333h.66c.186 0 .337-.157.337-.33V5.664c0-.182.155-.33.333-.33.184 0 .333.143.333.337v.66c0 .186.155.337.333.337.184 0 .333-.143.333-.336v-.66c0-.186.155-.336.333-.336.184 0 .333.143.333.337z" clip-rule="evenodd"/></g></g><defs><clipPath id="a"><path fill="#fff" d="M0 0h28v20H0z"/></clipPath></defs></svg>
